X:67
T:Hamilton House. Ru2.067
%%VWML:RutherfordVol2-2249-p34-0
F:http://www.vwml.org/record/RutherfordVol2/2249/p34
L:1/8
B:RUTHERFORD Complete Collection of 200 Country Dances Vol.2; 1759.
Z:vmp. Peter Dunk 2015
Q:1/2=70
K:D
f|e2 Ac/d/ ecAa|e2 AB/c/ dBGf|eAcd eAcA|BE E/E/E dBG:|
|:B|cA cd/e/ cAAB|cA cd/e/ dBGB|cA cd/e/ cAcA|BE E/E/E dBG:|
W:
W:The first Cu: foot it & hands round 3 with the 2d Wo .| the same with the 2d man :|
W:Gallop down one Cu: up again & cast off .| Hands round all Six :|
T:Lads of Bonny town. Ru2.068, The
L:1/8
B:RUTHERFORD Complete Collection of 200 Country Dances Vol.2; 1759.
Z:vmp.Mike Hicken 2015 www.village-music-project.org.uk
M:6/8
K:D
d2d c2d| efe efg|d2d c2d|ecA A2A|
d2d c2d|efd efg|afd gec|d2d d3:|
|: f2f fdf|g2g geg|f2f fdf|ecA A2g|
faf def|gbg efg|afd gec|d2d d3 :|
W:
W: The first Cu: cast off one Cu: & right hands across
W: with the 3rd Cu: .|  Cast up again & left Hands across
W: with the 2d Cu Gallop down one Cu: so again & cast
W: off .|.  Right & left at top :|.
